X: 29877
T: O'Keeffe's
R: waltz
M: 3/4
K: Gmajor
D2|:G4G2|G2A2B2|A4G2|A4 BA|
G2G3G|g2 (3fgf e2|d2B2G2|A2B2 (3ABA|
G4G2|G2A2B2|A4 {BA}E2|{FE}A3B c/B/A|
G2E2G2|A2B2A2|G6|1 G4 DE:|2 G4d2||
g2f2g2|a2g2a2|b2a2g2|e/f/eef/e/ d2|
g4gf/g/|a2g2a2|b2a2g2|e4g2|
f2e2d2|e2f2e2|d2B2G2|A2B2A2|
G2E2G2|A2B2A2|G6|1 G4d2:|2 G3 DEF||

